X:3
T:Scarborough Fair (D Aeolian adaptation)
C:Traditional English ballad, PD; arranged for D natural minor
M:3/4
L:1/4
Q:1/4=72
K:Dmin
A | d A F | D3/2 E/ F | E2 C | D3 |
F G A | c2 A | G2 F | A3 |
d A F | D3/2 E/ F | E2 C | D3 |
F E D | C2 C | D3 | D2 |
